<?xml version="1.0" encoding="UTF-8"?>
<map version="1.10" tiledversion="1.12.1" orientation="orthogonal" renderorder="right-down" width="30" height="20" tilewidth="8" tileheight="8" infinite="1" nextlayerid="21" nextobjectid="121">
 <editorsettings>
  <export format="tmx"/>
 </editorsettings>
 <tileset firstgid="1" source="enviro0.tsx"/>
 <tileset firstgid="25" source="water_effects.tsx"/>
 <layer id="10" name="Main" width="30" height="20">
  <data encoding="csv">
   <chunk x="-64" y="0" width="16" height="16">
1,1,1,1,6,11,11,11,11,11,11,11,11,11,11,11,
1,1,1,1,10,11,11,11,11,11,11,11,11,11,11,11,
4,1,1,1,18,19,6,11,11,11,11,11,5,19,19,19,
13,4,1,1,1,1,18,6,11,5,6,5,20,1,1,1,
11,12,2,4,1,1,1,18,6,12,18,20,1,1,1,1,
11,13,14,13,4,1,1,1,18,20,1,1,1,1,1,1,
11,11,11,11,13,4,1,1,1,1,1,1,1,1,1,1,
11,11,11,11,11,13,4,1,1,1,1,1,1,1,1,1,
11,11,11,11,11,5,20,1,1,1,1,1,1,1,1,1,
11,11,11,11,5,20,1,1,1,1,1,1,2,3,4,2,
11,11,11,11,12,1,1,1,1,2,4,2,14,11,13,14,
11,11,11,5,20,1,1,1,2,14,13,14,11,11,11,11,
11,11,11,12,1,1,1,2,14,11,11,11,11,11,11,11,
11,11,5,20,1,1,2,14,11,11,5,6,5,19,19,19,
5,19,20,1,1,2,14,5,19,6,12,18,20,1,1,1,
13,4,1,1,2,14,11,13,4,18,20,1,1,1,1,1
</chunk>
   <chunk x="-48" y="0" width="16" height="16">
11,11,11,11,11,11,11,11,11,11,11,11,11,11,11,11,
11,11,11,11,11,11,11,11,11,11,11,11,11,11,11,11,
19,19,19,19,19,6,11,11,11,11,11,11,11,11,5,19,
1,1,1,1,1,18,19,19,19,19,19,19,19,19,20,1,
1,1,1,1,1,1,1,1,1,1,1,1,1,1,1,1,
1,1,1,1,1,2,4,1,1,1,1,1,1,1,1,1,
1,1,1,1,2,14,12,2,4,2,4,1,1,1,2,4,
1,1,1,2,14,11,13,14,13,14,13,4,2,4,10,13,
1,2,4,10,11,11,11,5,6,5,6,13,14,13,22,6,
4,10,13,14,11,5,6,12,18,20,10,5,6,5,20,18,
13,14,5,6,5,20,18,20,1,1,18,20,18,20,1,1,
5,6,12,18,20,1,1,2,3,4,1,1,1,1,1,1,
12,18,20,1,1,1,1,10,11,12,1,2,4,1,1,2,
20,1,1,1,1,1,1,18,6,13,3,14,12,1,1,10,
1,1,1,1,1,1,1,2,14,11,11,5,20,1,1,10,
1,1,1,1,2,4,1,18,6,11,5,20,1,2,3,22
</chunk>
   <chunk x="-32" y="0" width="16" height="16">
11,11,11,11,11,11,11,11,11,11,11,11,11,11,11,11,
11,11,11,11,11,11,11,11,11,11,11,5,6,11,11,11,
19,19,19,19,19,19,19,19,19,19,19,20,18,6,11,11,
1,1,1,1,1,1,1,1,1,1,1,1,1,18,19,6,
1,1,1,1,1,2,3,3,3,3,4,1,1,1,1,18,
1,2,4,1,1,18,6,11,11,11,13,4,1,1,1,1,
2,14,12,2,4,1,10,11,11,11,5,20,1,1,1,1,
14,11,13,14,12,1,18,6,5,19,20,1,1,1,2,3,
5,6,11,11,13,4,1,18,20,1,1,2,3,3,14,11,
20,10,11,11,5,20,1,1,1,2,3,14,11,11,11,11,
1,18,6,11,13,4,1,1,2,14,11,11,11,11,11,11,
1,2,14,11,5,20,1,1,10,11,11,11,11,11,11,11,
4,18,6,5,20,1,1,1,10,11,11,11,11,11,5,19,
13,3,14,12,1,1,1,2,14,11,11,11,5,19,20,1,
11,5,19,20,1,1,1,10,11,11,11,5,20,1,1,1,
19,20,1,1,1,1,1,10,11,11,11,12,1,1,1,2
</chunk>
   <chunk x="-16" y="0" width="16" height="16">
11,11,11,11,11,11,11,11,11,11,11,11,11,11,11,11,
11,11,11,11,11,11,11,11,11,11,11,11,11,11,11,11,
11,11,11,11,11,11,11,11,11,11,11,11,11,11,11,11,
11,11,11,11,5,19,19,19,19,6,11,11,11,11,11,11,
19,19,19,19,20,1,1,1,1,18,19,6,5,6,11,11,
1,1,1,1,1,1,1,1,1,1,1,18,20,18,19,19,
2,3,3,3,3,3,3,3,4,1,1,1,1,1,1,1,
14,11,11,11,11,11,11,11,13,3,3,4,2,4,1,1,
11,11,11,11,11,11,11,11,11,11,11,13,14,13,3,4,
11,11,11,11,11,11,11,11,11,11,11,11,11,11,11,13,
11,11,11,11,11,11,11,11,11,11,11,11,11,11,11,11,
11,11,11,11,11,11,11,11,11,11,11,11,11,11,11,11,
19,19,19,19,19,6,11,11,11,11,11,11,11,11,11,11,
1,1,1,1,1,18,19,6,11,11,11,11,11,11,11,11,
2,3,4,1,1,1,1,18,19,6,11,11,11,11,5,19,
14,11,13,3,3,4,1,1,1,18,19,19,19,19,20,1
</chunk>
   <chunk x="0" y="0" width="16" height="16">
11,11,11,11,11,11,11,11,11,11,11,11,11,11,11,11,
11,11,11,11,11,11,11,11,11,11,11,11,11,11,11,11,
11,11,11,11,11,11,11,11,11,11,11,11,11,11,5,19,
11,11,11,11,11,11,11,11,11,11,11,11,11,5,20,1,
11,11,11,11,11,11,11,11,11,11,11,11,11,12,1,1,
19,6,11,11,11,11,11,11,11,5,19,6,11,13,4,1,
1,18,19,19,6,11,11,11,5,20,1,10,11,11,13,4,
1,1,2,3,14,11,11,5,20,1,1,10,11,11,5,20,
1,1,18,19,6,11,11,13,4,1,1,18,6,11,12,1,
4,1,1,2,14,11,11,11,12,1,1,1,18,6,13,4,
13,4,1,10,11,11,11,11,13,4,1,1,2,14,11,13,
11,12,1,18,6,11,11,11,11,12,1,1,18,19,6,11,
5,20,1,2,22,6,11,11,11,13,4,1,1,2,14,11,
12,1,1,18,20,10,11,11,11,11,12,1,1,10,11,11,
20,1,1,2,3,14,11,11,11,11,12,1,1,10,11,11,
1,1,1,10,11,11,11,11,5,19,20,1,1,10,11,11
</chunk>
   <chunk x="16" y="0" width="16" height="16">
11,11,11,11,11,11,11,11,11,11,11,11,11,11,11,11,
11,5,19,19,6,11,11,11,5,19,19,6,11,11,11,11,
19,20,1,1,18,6,11,11,12,1,1,18,6,11,11,11,
1,1,2,4,1,10,5,19,20,1,1,1,18,6,11,11,
1,2,14,12,1,18,20,1,1,2,3,4,1,18,6,11,
1,18,6,13,4,1,1,2,3,14,11,12,1,1,10,11,
1,1,10,11,12,1,1,10,11,11,5,20,1,2,14,11,
2,3,14,11,12,1,2,14,11,5,20,1,2,14,11,11,
10,11,11,5,20,1,10,11,11,12,1,1,10,11,11,11,
10,11,11,12,1,2,14,11,11,13,4,1,18,6,11,11,
14,11,5,20,1,10,11,11,11,11,13,4,1,10,11,11,
11,11,12,1,2,14,11,11,11,11,5,20,1,10,11,11,
11,5,20,1,10,11,11,11,5,19,20,1,1,10,11,11,
11,12,1,1,10,11,11,11,12,1,1,2,3,14,11,11,
11,13,4,1,10,11,11,11,13,4,1,10,11,11,11,11,
11,11,12,1,18,6,11,11,11,12,1,18,6,11,11,11
</chunk>
   <chunk x="-64" y="16" width="16" height="16">
5,20,1,1,10,11,11,5,20,1,1,1,1,1,2,4,
13,4,1,1,18,19,6,12,1,1,1,1,2,4,10,13,
11,13,4,1,1,1,18,20,1,1,2,3,14,13,14,11,
11,5,20,1,1,1,1,1,1,1,18,6,11,11,11,5,
11,13,4,1,1,1,1,1,1,1,1,10,11,11,5,20,
11,11,13,4,1,1,1,1,1,1,1,18,6,5,20,1,
11,11,11,12,1,1,1,1,1,1,1,1,1,1,1,1,
11,11,11,12,1,1,1,1,1,1,1,1,1,1,1,1,
11,11,5,20,1,1,1,1,1,1,1,1,1,1,1,1,
11,11,13,4,1,1,1,1,1,1,1,1,1,1,1,1,
11,11,5,20,1,1,1,1,1,1,1,1,1,1,1,1,
11,11,13,4,1,1,1,1,1,1,1,1,1,1,1,1,
11,11,5,20,1,1,1,1,1,1,1,1,1,1,1,1,
11,5,20,1,1,1,1,1,1,1,1,1,1,1,1,1,
11,13,4,1,1,1,1,1,1,1,1,1,1,1,1,1,
11,5,20,1,1,1,1,1,1,1,1,1,1,1,1,1
</chunk>
   <chunk x="-48" y="16" width="16" height="16">
2,4,2,4,10,13,4,1,18,19,20,1,1,18,6,13,
14,13,14,13,14,11,13,3,4,1,2,4,2,3,14,5,
11,11,11,11,11,11,11,11,13,3,14,13,14,11,11,12,
6,5,6,5,6,5,6,11,11,11,11,11,11,11,11,12,
18,20,18,20,18,20,18,19,19,19,6,11,11,11,11,12,
1,1,1,1,1,1,1,1,1,1,18,19,6,5,19,20,
1,1,1,1,1,1,1,1,1,1,1,1,18,20,1,1,
1,1,1,1,1,1,1,1,1,1,1,1,1,1,1,1,
1,1,1,1,1,1,1,1,1,1,1,1,1,1,1,1,
1,1,1,1,1,1,1,1,1,1,1,1,1,1,1,1,
1,1,1,1,1,1,1,1,1,1,1,1,1,1,1,1,
1,1,1,1,1,1,1,1,1,1,1,1,1,1,1,1,
1,1,1,1,1,1,1,1,1,1,1,1,1,2,3,3,
1,1,1,1,1,1,1,1,1,1,1,1,1,18,6,11,
1,1,1,1,1,1,1,1,1,1,1,1,2,3,14,11,
1,1,1,1,1,1,1,1,1,1,1,1,18,19,19,19
</chunk>
   <chunk x="-32" y="16" width="16" height="16">
4,1,1,1,1,1,1,10,11,11,5,20,1,1,1,18,
20,1,1,1,1,1,1,10,11,11,13,4,2,4,1,1,
1,1,1,1,1,1,1,18,6,11,11,12,18,21,4,1,
1,1,1,1,1,1,1,1,10,11,11,13,4,10,13,4,
1,1,1,1,1,1,1,1,10,11,11,11,13,14,11,13,
1,1,1,1,1,1,1,1,10,11,11,11,11,11,11,11,
1,1,1,1,1,1,1,1,18,6,11,11,11,11,11,11,
1,1,1,1,1,1,1,1,1,10,11,11,11,11,11,11,
1,1,1,1,1,1,1,1,1,18,6,11,11,11,11,11,
1,1,1,1,1,1,1,1,1,1,10,11,11,11,11,11,
1,1,1,1,1,1,1,1,1,1,18,19,6,11,11,11,
1,1,1,1,1,1,1,1,1,1,1,1,18,19,19,19,
4,1,1,1,1,1,1,1,1,1,1,1,1,1,1,1,
12,1,1,1,1,1,1,1,1,1,1,1,1,1,1,1,
13,3,3,4,2,4,2,4,1,1,1,1,1,1,1,1,
6,11,11,13,14,13,14,12,2,4,1,1,1,1,1,1
</chunk>
   <chunk x="-16" y="16" width="16" height="16">
6,11,11,11,11,13,3,4,1,1,1,1,1,1,1,1,
18,6,11,11,11,11,11,13,3,4,1,1,1,1,2,3,
1,18,19,6,11,11,11,11,11,13,3,3,3,3,14,11,
1,1,1,18,19,19,6,11,11,11,11,11,11,11,11,11,
4,1,1,1,1,1,18,19,19,19,6,11,11,11,11,11,
13,4,2,4,1,1,1,1,1,1,18,19,19,19,6,11,
11,13,22,20,1,2,3,3,3,3,3,3,4,1,18,6,
11,11,13,3,3,14,11,11,11,11,11,11,13,4,1,10,
11,11,11,11,11,11,11,11,11,11,11,11,11,13,4,10,
11,11,11,11,11,11,11,11,11,11,11,11,11,11,12,18,
11,11,11,11,11,11,11,11,11,11,11,11,11,11,12,1,
19,6,11,11,11,11,11,11,11,11,11,11,11,5,20,1,
1,18,19,19,6,11,5,6,11,11,11,11,11,12,1,1,
1,1,1,1,18,6,12,18,6,11,11,11,5,20,1,1,
1,1,1,1,1,18,20,1,18,19,6,11,12,1,1,1,
1,1,1,1,1,1,1,1,1,1,18,19,20,1,1,1
</chunk>
   <chunk x="0" y="16" width="16" height="16">
1,2,3,14,11,11,11,11,12,1,1,1,1,10,11,11,
3,14,11,11,11,11,11,5,20,1,1,1,2,14,11,11,
11,11,11,11,11,11,5,20,1,1,1,1,18,6,11,11,
11,11,11,11,11,5,20,1,1,1,1,1,2,14,11,5,
11,11,11,11,5,20,1,1,1,1,1,1,10,11,5,20,
11,11,11,11,12,1,1,1,1,1,1,2,14,11,12,1,
11,11,11,11,12,1,1,1,1,1,1,18,6,11,13,4,
11,11,11,11,12,1,1,1,1,1,1,1,10,11,11,13,
11,11,11,11,12,1,1,1,1,1,1,1,10,11,11,11,
6,11,11,11,12,1,1,1,1,1,1,1,10,11,11,11,
10,11,11,11,12,1,1,1,1,1,1,1,10,11,11,11,
10,11,11,11,13,4,1,1,1,1,1,1,10,11,11,5,
18,6,11,11,11,13,3,4,1,1,1,1,18,6,11,12,
1,10,11,11,11,11,11,13,4,1,1,1,1,10,11,12,
1,18,19,6,11,11,11,11,13,3,4,1,2,14,11,12,
1,1,1,18,19,19,6,11,11,11,12,1,10,11,11,13
</chunk>
   <chunk x="16" y="16" width="16" height="16">
11,11,13,4,1,18,6,11,11,13,4,1,10,11,11,11,
11,11,11,13,4,1,10,11,11,11,12,1,18,6,11,11,
5,19,19,6,12,1,10,11,11,11,12,1,1,10,11,11,
20,2,4,18,20,1,10,11,11,5,20,1,1,18,6,11,
2,14,12,1,1,2,14,11,5,20,1,2,4,1,10,11,
10,11,13,4,1,10,11,11,12,1,2,14,12,1,10,11,
18,6,11,12,1,18,6,11,12,1,18,19,20,1,10,11,
4,10,11,13,4,1,10,11,13,4,1,1,1,1,10,11,
12,18,6,11,12,1,18,6,11,13,3,4,1,1,10,11,
13,4,10,11,13,4,1,10,11,5,19,20,1,2,14,11,
5,20,10,11,11,12,1,18,19,20,1,1,2,14,11,11,
20,2,14,11,11,12,1,1,1,1,1,1,10,11,11,11,
2,14,11,11,5,20,1,2,3,4,1,1,18,6,11,11,
10,11,11,5,20,1,2,14,11,13,3,4,1,18,6,11,
18,6,11,12,1,2,14,11,11,11,11,13,4,1,10,11,
4,10,11,12,1,10,11,11,11,11,11,11,12,1,10,11
</chunk>
   <chunk x="-64" y="32" width="16" height="16">
11,13,3,4,2,4,1,1,1,1,1,1,1,1,1,1,
11,11,11,13,14,12,2,4,1,1,1,1,1,1,1,1,
11,11,11,11,11,13,14,13,4,1,1,1,1,1,1,1,
11,11,11,11,11,11,11,11,13,4,1,1,1,1,1,1,
11,11,11,11,11,11,11,11,5,20,1,1,1,1,1,1,
11,11,11,11,11,11,11,11,12,1,1,1,1,1,1,1,
11,11,11,11,11,11,11,11,12,1,1,1,1,1,1,1,
11,11,11,11,11,5,19,19,20,1,1,1,1,1,1,1,
11,11,11,11,11,13,4,1,1,1,1,1,1,1,1,1,
11,11,11,11,11,11,12,1,1,1,1,1,1,1,1,1,
11,5,19,6,11,11,12,1,1,1,1,1,1,1,1,1,
11,20,2,14,11,5,20,1,1,1,1,1,1,1,1,1,
11,4,18,6,5,20,1,1,1,1,1,1,1,1,1,1,
11,13,3,22,20,1,1,1,1,1,1,1,1,1,1,1,
11,5,19,20,1,1,1,1,1,1,1,1,1,1,1,1,
11,12,2,4,1,1,1,1,1,1,1,1,1,1,1,1
</chunk>
   <chunk x="-48" y="32" width="16" height="16">
1,1,1,1,1,1,1,1,1,1,1,1,1,1,1,1,
1,1,1,1,1,1,1,2,3,4,1,1,2,4,2,4,
1,1,1,1,1,1,1,18,6,12,1,2,14,13,14,13,
1,1,1,1,1,2,3,3,14,12,2,14,11,5,6,5,
1,1,1,1,1,10,11,11,11,13,14,11,5,20,18,20,
1,1,1,1,1,18,6,11,11,11,5,6,12,1,1,1,
1,1,1,1,1,1,10,11,11,11,12,18,20,1,1,1,
1,1,1,1,1,2,14,11,11,11,12,1,1,1,1,1,
1,1,1,1,2,14,11,11,11,5,20,1,1,1,1,2,
1,1,1,1,18,6,11,11,11,12,1,1,1,1,1,18,
1,1,1,1,2,14,11,11,11,13,4,1,1,1,2,3,
1,1,1,1,18,6,11,11,5,19,20,1,1,1,18,6,
1,1,1,1,2,14,11,11,13,4,1,1,1,2,3,22,
1,1,1,1,18,6,11,11,5,20,1,1,1,18,6,13,
1,1,1,1,1,10,11,11,13,4,1,1,2,3,14,5,
1,1,1,1,2,14,11,5,19,20,1,1,18,6,5,20
</chunk>
   <chunk x="-32" y="32" width="16" height="16">
18,19,6,11,11,11,11,13,14,13,4,2,4,1,1,1,
2,3,14,11,11,11,11,11,11,11,13,14,12,2,4,1,
14,11,5,6,5,6,5,6,5,6,11,11,13,14,13,4,
6,5,20,18,20,18,20,18,20,10,5,6,5,6,11,13,
18,20,1,1,1,1,1,1,1,18,20,18,20,10,5,6,
1,1,1,1,1,1,1,1,1,1,1,1,1,18,20,18,
1,1,1,1,1,1,1,2,4,1,1,1,1,1,1,1,
1,1,1,2,4,2,3,14,13,3,4,1,1,1,1,1,
3,4,2,14,13,14,5,6,5,6,13,3,4,1,1,1,
6,13,14,11,5,6,12,18,20,10,11,11,13,4,1,1,
22,19,6,5,20,18,20,1,1,18,19,6,11,13,3,4,
13,4,18,20,1,1,1,1,1,1,1,10,5,19,6,13,
19,20,1,1,1,1,1,1,1,1,1,18,20,2,14,11,
4,1,1,1,1,1,1,1,1,1,1,1,1,18,19,6,
20,1,1,1,1,1,1,1,1,1,1,1,1,1,2,14,
1,1,1,1,1,1,1,1,1,1,1,1,1,1,18,6
</chunk>
   <chunk x="-16" y="32" width="16" height="16">
1,1,1,1,1,1,1,1,1,1,1,1,1,1,1,1,
1,1,1,1,1,1,1,1,1,1,1,1,1,1,1,1,
1,1,1,1,1,1,1,1,1,1,1,1,1,1,1,1,
4,1,1,1,1,1,1,1,1,1,1,1,1,1,1,1,
13,4,1,1,1,1,1,1,1,1,1,1,1,1,1,1,
6,13,4,1,1,1,1,1,1,1,1,1,1,1,1,1,
18,6,13,4,1,1,1,1,1,1,1,1,1,1,1,1,
1,18,19,21,4,1,1,1,1,1,1,1,1,1,1,1,
1,1,2,14,13,3,4,1,1,1,1,1,1,1,1,1,
1,1,18,6,11,5,20,1,1,1,1,1,1,1,1,1,
1,1,1,18,6,13,4,1,1,1,1,1,1,1,1,1,
4,1,1,1,18,6,13,3,4,1,1,1,1,1,1,1,
13,4,1,1,1,18,19,19,20,1,1,1,1,1,1,1,
5,20,1,1,1,1,2,3,3,4,1,1,1,1,1,1,
13,4,1,1,1,1,18,6,5,20,1,1,1,1,1,1,
5,20,1,1,1,1,2,14,13,4,1,1,1,1,1,1
</chunk>
   <chunk x="0" y="32" width="16" height="16">
1,1,1,1,1,1,18,19,19,19,20,1,10,11,11,11,
1,1,1,1,1,1,1,1,1,1,1,1,10,11,11,11,
1,1,1,1,1,1,1,1,1,1,1,2,14,11,11,11,
1,1,1,1,1,1,1,1,1,1,1,10,11,11,11,11,
1,1,1,1,1,1,1,1,1,1,1,10,11,11,11,11,
1,1,1,1,1,1,1,1,1,1,2,14,11,11,11,11,
1,1,1,1,1,1,1,1,1,1,10,11,11,5,19,19,
1,1,1,1,1,1,1,1,1,2,14,11,5,20,1,1,
1,1,1,1,1,1,1,2,3,14,11,5,20,1,1,1,
1,1,1,1,1,1,1,10,11,11,5,20,2,4,1,1,
1,1,1,1,1,1,2,14,11,11,12,2,14,13,4,1,
1,1,1,1,1,1,10,11,11,11,12,10,11,11,13,3,
1,1,1,1,1,1,10,11,11,11,12,18,19,6,11,11,
1,1,1,1,1,1,10,11,11,11,13,4,1,18,6,5,
1,1,1,1,1,1,10,11,11,11,11,13,3,4,18,21,
1,1,1,1,1,1,18,6,11,11,11,11,11,13,4,18
</chunk>
   <chunk x="16" y="32" width="16" height="16">
12,10,11,12,1,18,6,11,11,11,11,5,20,1,10,11,
12,10,11,13,4,1,10,11,11,11,11,12,1,2,14,11,
12,18,6,11,12,1,18,19,6,5,19,20,1,10,11,11,
13,4,10,11,13,4,1,1,18,20,1,1,2,14,11,11,
11,12,10,11,11,13,3,4,1,1,2,3,14,11,11,11,
11,12,18,6,11,11,11,13,3,3,14,11,11,11,11,11,
6,13,4,10,11,11,11,11,11,11,11,11,11,11,11,11,
18,6,12,18,6,11,11,11,11,11,11,11,11,11,11,11,
1,10,13,4,18,19,19,19,19,19,6,11,11,11,11,11,
1,10,11,13,3,3,3,3,3,4,18,19,6,11,11,11,
2,14,11,11,11,11,11,11,11,13,3,4,18,6,11,11,
14,11,11,5,19,19,6,11,11,11,11,13,4,10,11,11,
11,11,5,20,2,4,18,19,6,11,11,11,12,10,11,11,
6,5,20,2,14,13,3,4,10,11,11,11,12,10,11,11,
22,20,2,14,11,11,11,12,10,11,11,11,12,10,11,11,
20,2,14,11,11,11,11,12,10,11,11,5,20,10,11,11
</chunk>
   <chunk x="-64" y="48" width="16" height="16">
11,13,14,12,1,1,1,1,1,1,1,1,1,1,1,1,
11,11,11,13,3,4,1,1,1,1,1,1,1,1,1,1,
11,11,11,11,11,12,1,1,1,1,1,1,1,1,1,1,
11,11,11,11,11,12,1,1,1,1,1,1,1,1,1,1,
11,11,11,5,19,20,1,1,1,1,1,1,1,1,1,1,
11,11,11,13,4,1,1,1,1,1,1,1,1,1,1,1,
11,11,11,11,12,2,4,1,1,1,1,1,1,1,1,1,
11,11,11,11,13,14,12,1,1,1,1,1,1,1,1,1,
11,11,11,11,11,5,20,1,1,1,1,1,1,1,1,1,
11,11,11,11,11,12,1,1,1,1,1,1,1,1,1,1,
11,11,11,11,11,13,4,1,1,1,1,1,1,1,1,1,
11,11,11,11,11,11,13,4,1,1,1,1,1,1,1,1,
11,11,11,11,11,11,11,12,1,1,1,1,1,1,1,1,
11,11,11,11,11,11,5,20,1,1,1,1,1,1,1,1,
11,11,11,11,5,19,20,1,1,1,1,1,1,1,1,1,
11,11,5,19,20,1,1,1,1,1,1,1,1,1,1,1
</chunk>
   <chunk x="-48" y="48" width="16" height="16">
1,1,1,2,22,6,11,13,4,1,1,1,2,14,13,4,
1,1,1,10,13,14,11,5,20,1,1,1,18,19,6,12,
1,1,1,10,11,11,11,13,4,1,1,1,2,4,10,12,
1,1,1,18,6,11,11,5,20,1,1,1,18,20,10,13,
1,1,1,1,10,11,11,13,4,1,1,1,1,2,14,11,
1,1,1,1,10,11,11,11,12,1,1,1,1,18,19,6,
1,1,1,1,18,6,11,11,13,4,1,1,1,1,2,14,
1,1,1,1,1,10,11,11,11,12,1,1,1,1,10,11,
1,1,1,1,1,18,6,11,11,13,4,1,1,1,18,19,
1,1,1,1,1,2,14,11,11,11,12,1,1,1,1,2,
1,1,1,1,1,10,11,11,5,6,13,4,1,1,1,18,
1,1,1,1,1,10,11,5,20,10,11,13,3,4,1,1,
1,1,1,1,1,18,19,20,1,18,19,6,11,12,1,1,
1,1,1,1,1,1,1,1,1,1,1,10,11,13,4,2,
1,1,1,1,1,1,1,1,1,1,1,18,19,6,13,14,
1,1,1,1,1,1,1,1,1,1,1,1,1,18,6,11
</chunk>
   <chunk x="-32" y="48" width="16" height="16">
1,1,1,1,1,1,1,1,1,1,1,1,1,1,2,14,
1,1,1,1,1,1,1,1,1,1,1,1,1,1,18,6,
1,1,1,1,1,1,1,1,1,1,1,1,1,1,1,18,
4,1,1,1,1,1,1,1,1,1,1,1,1,1,1,2,
12,1,1,1,1,1,1,1,1,1,1,1,2,3,4,10,
13,4,1,1,1,1,1,1,1,1,1,1,18,6,13,22,
11,12,1,1,1,1,1,1,1,1,1,2,4,10,5,20,
11,13,4,1,1,1,1,1,1,1,1,18,20,18,20,1,
6,11,13,4,2,4,1,1,1,1,1,1,1,1,1,1,
14,11,11,13,14,13,3,4,2,4,1,1,1,1,1,1,
19,19,6,5,6,5,6,13,14,12,2,4,2,4,1,1,
1,1,18,20,18,21,14,5,19,21,14,13,14,13,4,2,
1,1,1,1,1,10,11,12,2,14,5,6,5,6,13,14,
4,1,1,1,1,18,19,20,18,19,20,18,20,18,6,5,
12,1,1,1,1,1,1,1,1,1,1,1,1,1,18,20,
12,2,4,2,3,4,2,3,4,1,1,1,1,1,1,1
</chunk>
   <chunk x="-16" y="48" width="16" height="16">
13,4,1,1,1,1,18,6,5,20,1,1,1,1,1,1,
11,13,4,1,1,1,2,14,13,4,1,1,1,1,1,1,
6,5,20,1,1,1,18,6,5,20,1,1,1,1,1,1,
14,13,4,1,1,2,3,14,12,1,1,1,1,1,1,1,
11,5,20,1,1,18,6,5,20,1,1,1,1,1,1,1,
6,12,1,1,2,3,14,13,4,1,1,1,1,1,1,1,
18,20,1,1,18,6,5,19,20,1,1,1,1,1,1,1,
1,1,1,2,3,14,13,4,1,1,1,1,1,1,1,1,
1,1,1,18,6,11,5,20,1,1,1,1,1,1,2,3,
1,1,1,2,14,5,20,1,1,1,1,1,1,1,18,19,
1,2,4,10,5,20,1,1,1,1,1,1,1,1,2,3,
4,10,13,14,12,1,1,1,1,1,1,1,1,1,10,5,
13,14,11,5,20,1,1,1,1,1,1,1,1,2,14,13,
6,5,6,12,1,1,1,1,1,1,1,1,1,18,19,19,
18,20,18,20,1,1,1,1,1,1,1,1,2,3,3,4,
1,1,1,1,1,1,1,1,1,1,2,4,10,5,19,20
</chunk>
   <chunk x="0" y="48" width="16" height="16">
1,1,1,1,1,1,1,10,11,11,11,11,11,11,13,4,
1,1,1,1,1,1,1,10,11,11,11,11,11,11,11,13,
1,1,1,1,1,1,1,18,6,11,11,11,11,11,11,11,
1,1,1,1,1,1,1,1,18,19,6,11,11,11,11,11,
1,1,1,1,1,1,1,1,1,1,18,6,11,11,5,19,
1,1,1,1,1,1,1,1,1,1,1,18,19,19,20,1,
1,1,1,1,1,1,1,1,1,1,1,1,1,1,1,1,
1,1,1,1,1,1,1,1,1,1,1,1,1,1,1,1,
4,1,1,1,1,1,1,1,1,1,1,1,1,1,1,1,
20,1,1,1,1,1,1,1,1,1,1,1,1,1,1,1,
4,1,1,1,1,1,1,1,1,1,1,1,1,1,1,1,
20,1,1,1,1,1,1,1,1,1,1,1,1,1,1,1,
4,1,1,1,1,1,1,1,1,1,1,1,1,1,1,1,
20,1,1,1,1,1,1,1,1,1,1,1,1,1,1,1,
1,1,1,1,1,1,1,1,1,1,1,1,1,1,1,1,
1,1,1,1,1,1,1,1,1,1,1,1,1,1,1,1
</chunk>
   <chunk x="16" y="48" width="16" height="16">
1,18,19,6,11,11,11,12,18,6,11,12,2,14,11,11,
3,4,1,18,19,6,11,13,4,18,19,20,10,11,11,11,
11,13,4,1,1,18,6,11,13,3,3,3,14,11,11,11,
11,11,13,4,1,1,10,11,11,11,11,11,11,11,11,11,
19,19,19,20,1,1,18,19,19,19,6,11,11,11,11,11,
1,1,1,1,1,1,1,1,1,1,18,19,6,11,11,11,
1,1,1,1,1,1,1,1,1,1,1,1,18,6,11,11,
1,1,1,1,1,1,1,1,1,1,1,1,1,10,11,11,
1,1,1,1,1,1,1,1,1,1,1,1,1,10,11,11,
1,1,1,1,1,1,1,1,1,1,1,1,1,10,11,11,
1,1,1,1,1,1,1,1,1,1,2,3,4,10,11,11,
1,1,1,1,1,1,1,1,1,1,18,6,13,14,11,11,
1,1,1,1,1,1,1,2,3,4,2,14,11,11,11,11,
1,1,1,1,1,1,2,14,11,13,14,11,11,11,11,11,
1,1,1,1,2,3,14,11,11,11,11,11,11,11,11,11,
1,2,4,2,14,11,11,11,11,11,11,11,11,11,11,11
</chunk>
   <chunk x="-64" y="64" width="16" height="16">
5,19,20,1,1,1,1,1,1,1,1,1,1,1,1,1,
13,4,1,1,1,1,1,1,1,1,1,1,1,1,1,1,
5,20,1,1,1,1,1,1,1,1,1,1,1,1,1,1,
12,2,4,2,4,1,1,1,1,1,1,1,1,1,1,1,
13,14,13,14,13,4,1,1,1,1,1,1,1,1,1,1,
11,11,11,5,19,20,1,1,1,1,1,1,1,1,1,1,
11,11,11,13,4,1,1,1,1,1,1,1,1,1,1,1,
11,11,11,11,12,1,1,1,1,1,1,1,1,1,1,1,
11,11,11,11,12,1,1,1,1,1,1,1,1,1,1,1,
11,11,11,11,12,1,1,2,4,1,1,1,1,1,1,1,
11,11,11,11,13,4,2,14,12,1,1,1,1,1,1,1,
11,11,11,11,5,21,14,5,20,1,1,1,1,1,1,1,
11,11,11,5,20,10,11,12,1,1,1,1,1,1,1,1,
11,11,11,12,2,14,5,20,1,1,1,1,1,1,1,1,
11,11,11,13,14,5,20,1,1,1,1,1,1,1,1,1,
11,11,11,11,5,20,1,1,1,1,1,1,1,1,1,1
</chunk>
   <chunk x="-48" y="64" width="16" height="16">
1,1,1,1,1,1,1,1,1,1,1,1,1,1,18,6,
1,1,1,1,1,1,1,1,1,1,1,1,1,1,1,18,
1,1,1,1,1,1,1,1,1,1,1,1,1,1,1,1,
1,1,1,1,1,1,1,1,1,1,1,1,1,1,1,1,
1,1,1,1,1,1,1,1,1,1,1,1,1,1,1,1,
1,1,1,1,1,1,1,1,1,1,1,1,1,1,1,1,
1,1,1,1,1,1,1,1,1,1,1,1,1,1,1,1,
1,1,1,1,1,1,1,1,1,1,1,1,1,1,1,1,
1,1,1,1,1,1,1,1,1,1,1,1,1,1,1,1,
1,1,1,1,1,1,1,1,1,1,1,1,1,1,1,1,
1,1,1,1,1,1,1,1,1,1,1,1,1,1,1,1,
1,1,1,1,1,1,1,1,1,1,1,1,1,1,1,1,
1,1,1,1,1,1,1,1,1,1,1,1,1,1,1,1,
1,1,1,1,1,1,1,1,1,1,1,1,1,1,1,1,
1,1,1,1,1,1,1,1,1,1,1,1,1,1,1,1,
1,1,1,1,1,1,1,1,1,1,1,1,1,1,1,1
</chunk>
   <chunk x="-32" y="64" width="16" height="16">
13,14,13,14,11,13,14,5,21,3,4,2,4,1,1,1,
6,11,11,11,11,11,11,13,14,11,13,14,12,2,4,1,
18,19,19,6,11,5,6,5,6,11,11,11,13,14,13,3,
1,1,1,18,19,20,18,20,10,11,11,5,6,5,6,11,
1,1,1,1,1,1,1,1,18,19,19,20,18,20,10,5,
1,1,1,1,1,1,1,1,1,1,1,1,1,1,18,20,
1,1,1,1,1,1,1,1,1,1,1,1,1,1,1,1,
1,1,1,1,1,1,1,1,1,1,1,1,1,1,1,1,
1,1,1,1,1,1,1,1,1,1,1,1,1,1,1,1,
1,1,1,1,1,1,1,1,1,1,1,1,1,1,1,1,
1,1,1,1,1,1,1,1,1,1,1,1,1,1,1,1,
1,1,1,1,1,1,1,1,1,1,1,1,1,1,1,1,
1,1,1,1,1,1,1,1,1,1,1,1,1,1,1,1,
1,1,1,1,1,1,1,1,1,1,1,1,1,1,1,1,
1,1,1,1,1,1,1,1,1,1,1,1,1,1,1,1,
1,1,1,1,1,1,1,1,1,1,1,1,1,1,1,1
</chunk>
   <chunk x="-16" y="64" width="16" height="16">
2,4,1,1,1,1,2,4,2,4,10,13,14,13,4,1,
10,13,3,4,2,4,10,13,14,13,14,11,11,5,20,1,
14,11,11,13,14,13,14,11,11,5,6,11,5,20,1,1,
11,11,11,11,11,5,6,5,6,12,18,6,12,1,1,1,
6,5,6,5,6,12,18,20,18,20,1,18,20,1,1,1,
10,13,22,20,18,20,1,1,1,1,1,1,1,1,1,1,
18,6,12,1,1,1,1,1,1,1,1,1,1,1,1,1,
1,18,20,1,1,1,1,1,1,1,1,1,1,1,1,1,
1,1,1,1,1,1,1,1,1,1,1,1,1,1,1,1,
1,1,1,1,1,1,1,1,1,1,1,1,1,1,1,1,
1,1,1,1,1,1,1,1,1,1,1,1,1,1,1,1,
1,1,1,1,1,1,1,1,1,1,1,1,1,1,1,1,
1,1,1,1,1,1,1,1,1,1,1,1,1,1,1,1,
1,1,1,1,1,1,1,1,1,1,1,1,1,1,1,1,
1,1,1,1,1,1,1,1,1,1,1,1,1,1,1,1,
1,1,1,1,1,1,1,1,1,1,1,1,1,1,1,1
</chunk>
   <chunk x="0" y="64" width="16" height="16">
1,1,1,1,1,1,1,1,1,1,1,1,1,1,1,1,
1,1,1,1,1,1,1,1,1,1,1,1,1,1,1,1,
1,1,1,1,1,1,1,1,1,1,1,1,1,1,1,1,
1,1,1,1,1,1,1,1,1,1,1,1,1,1,1,2,
1,1,1,1,1,1,1,1,1,1,1,1,1,1,1,10,
1,1,1,1,1,1,1,1,1,1,1,1,1,1,1,10,
1,1,1,1,1,1,1,1,1,1,1,1,1,1,1,10,
1,1,1,1,1,1,1,1,1,1,1,1,1,1,1,10,
1,1,1,1,1,1,1,1,1,1,1,1,1,1,2,14,
1,1,1,1,1,1,1,1,1,1,1,1,1,1,10,11,
1,1,1,1,1,1,1,1,1,1,1,1,1,1,10,11,
1,1,1,1,1,1,1,1,1,1,1,1,1,1,10,11,
1,1,1,1,1,1,1,1,1,1,1,1,1,1,10,11,
1,1,1,1,1,1,1,1,1,1,1,1,1,1,10,11,
1,1,1,1,1,1,1,1,1,1,1,1,1,1,10,11,
1,1,1,1,1,1,1,1,1,1,1,1,1,1,18,6
</chunk>
   <chunk x="16" y="64" width="16" height="16">
1,10,13,14,11,11,11,11,11,11,11,11,11,11,11,11,
2,14,11,11,11,11,11,11,11,11,11,11,11,11,11,11,
10,11,11,11,11,11,11,11,11,11,11,11,11,11,11,11,
14,11,11,11,11,11,11,11,11,11,11,11,11,11,11,11,
11,11,11,11,11,11,11,11,11,11,11,11,11,11,11,11,
11,11,11,11,11,11,11,11,11,11,11,11,11,11,11,11,
11,11,11,11,11,11,11,11,11,11,11,11,11,11,11,11,
11,11,11,11,11,11,11,11,11,11,11,11,11,11,11,11,
11,11,11,11,11,11,11,11,11,11,11,11,11,11,11,11,
11,11,11,11,11,11,11,11,11,11,11,11,11,11,11,11,
11,11,11,11,11,11,11,11,11,11,11,11,11,11,11,11,
11,11,11,11,11,11,11,11,11,11,11,11,11,11,11,11,
11,11,11,11,11,11,11,11,11,11,11,11,11,11,11,11,
11,11,11,11,11,11,11,11,11,11,11,11,11,11,11,11,
11,11,11,11,11,11,11,11,11,11,11,11,11,11,11,11,
11,11,11,11,11,11,11,11,11,11,11,11,11,11,11,11
</chunk>
   <chunk x="-64" y="80" width="16" height="16">
11,11,11,11,12,1,1,1,1,1,1,1,1,1,1,1,
11,11,11,5,20,1,1,1,1,1,1,1,1,1,1,1,
11,11,11,12,1,1,1,1,1,1,1,1,1,1,1,1,
11,11,11,13,1,1,1,1,1,1,1,1,1,1,1,1,
11,11,11,5,1,1,1,1,1,1,1,1,1,1,1,2,
11,11,11,12,1,1,1,1,1,1,1,1,1,1,1,18,
11,11,5,20,1,1,1,1,1,1,1,1,1,1,1,1,
11,11,12,1,1,1,1,1,1,1,1,1,1,1,1,1,
11,11,13,4,1,1,1,1,1,1,1,1,1,1,1,1,
11,11,11,13,4,1,1,1,1,1,1,1,1,1,1,1,
11,11,11,11,13,4,1,1,1,1,1,1,1,1,1,1,
11,11,11,11,11,13,3,4,1,1,1,1,1,1,1,1,
11,11,11,11,11,11,11,13,3,3,4,2,3,3,4,1,
11,11,11,11,11,11,11,11,11,11,13,14,11,11,12,2,
11,11,11,11,11,11,11,11,11,11,11,11,11,11,13,14,
11,11,11,11,11,11,11,11,11,11,11,11,11,11,11,11
</chunk>
   <chunk x="-48" y="80" width="16" height="16">
1,1,1,1,1,1,1,1,1,1,1,1,1,1,1,1,
1,2,3,3,4,1,1,1,1,1,1,1,1,1,1,1,
1,10,11,11,12,1,1,1,1,1,1,1,1,1,1,1,
2,14,11,11,12,1,1,1,1,1,1,1,1,1,1,1,
14,11,11,11,13,4,1,1,1,1,1,1,1,1,1,1,
19,6,11,11,11,12,1,1,2,4,2,3,4,1,1,1,
1,18,6,11,11,13,3,3,14,12,10,11,13,3,4,1,
1,2,14,11,11,5,6,11,11,12,18,6,11,11,12,1,
1,10,11,11,11,12,18,6,11,13,3,22,6,5,20,1,
1,18,19,19,6,13,4,18,6,11,11,13,14,12,1,1,
1,1,1,1,10,11,13,4,18,19,19,6,11,13,3,3,
1,1,1,1,10,11,11,12,1,1,1,18,6,11,11,11,
1,1,1,2,14,11,11,13,4,1,1,1,10,11,11,11,
3,3,3,14,11,11,11,11,13,4,1,2,14,11,11,11,
11,11,11,11,11,11,11,11,11,13,3,14,11,11,11,11,
11,11,11,11,11,11,11,11,11,11,11,11,11,11,11,11
</chunk>
   <chunk x="-32" y="80" width="16" height="16">
1,1,1,1,1,1,1,1,1,1,1,1,1,1,1,1,
1,1,1,1,1,1,1,1,1,1,1,1,1,1,1,1,
1,1,1,1,1,1,1,1,1,1,1,1,1,1,1,1,
1,1,1,1,1,1,1,1,1,1,1,1,1,1,1,1,
1,1,1,1,1,1,1,1,1,1,1,1,1,1,1,1,
1,1,1,1,1,1,1,1,1,1,1,1,1,1,1,1,
1,1,1,1,1,1,1,1,1,1,1,1,1,1,1,1,
1,1,1,1,1,1,1,1,1,1,1,1,1,1,1,1,
1,1,1,1,1,1,1,1,1,1,1,1,1,1,1,1,
1,1,1,1,1,1,1,1,1,1,1,1,1,1,1,1,
3,4,1,1,1,1,1,1,1,1,1,1,1,1,1,1,
11,13,3,3,3,3,4,2,4,1,2,3,4,1,2,3,
11,11,11,11,11,11,13,14,13,3,14,11,13,3,14,11,
11,11,11,11,11,11,11,11,11,11,11,11,11,11,11,11,
11,11,11,11,11,11,11,11,11,11,11,11,11,11,11,11,
11,11,11,11,11,11,11,11,11,11,11,11,11,11,11,11
</chunk>
   <chunk x="-16" y="80" width="16" height="16">
1,1,1,1,1,1,1,1,1,1,1,1,1,1,1,1,
1,1,1,1,1,1,1,1,1,1,1,1,1,1,1,1,
1,1,1,1,1,1,1,1,1,1,1,1,1,1,1,1,
1,1,1,1,1,1,1,1,1,1,1,1,1,1,1,1,
1,1,1,1,1,1,1,1,1,1,1,1,1,1,1,1,
1,1,1,1,1,1,1,1,1,1,1,1,1,1,1,1,
1,1,1,1,1,1,1,1,1,1,1,1,1,1,1,1,
1,1,1,1,1,1,1,1,1,1,1,1,1,1,1,1,
1,1,1,1,1,1,1,1,1,1,1,1,1,1,1,1,
1,1,1,1,1,1,1,1,1,1,1,1,1,1,1,1,
1,1,1,1,1,1,1,1,1,1,1,1,1,1,1,1,
4,1,1,1,1,1,1,1,1,1,1,1,1,1,1,1,
13,3,3,3,4,1,1,2,3,4,2,4,1,1,2,3,
11,11,11,11,13,3,3,14,11,13,14,13,4,1,18,6,
11,11,11,11,11,11,11,11,11,11,11,11,13,3,3,14,
11,11,11,11,11,11,11,11,11,11,11,11,11,11,11,11
</chunk>
   <chunk x="0" y="80" width="16" height="16">
1,1,1,1,1,1,1,1,1,1,1,1,1,1,1,10,
1,1,1,1,1,1,1,1,1,1,1,1,1,1,1,10,
1,1,1,1,1,1,1,1,1,1,1,1,1,1,1,10,
1,1,1,1,1,1,1,1,1,1,1,1,1,1,1,10,
1,1,1,1,1,1,1,1,1,1,1,1,1,1,1,10,
1,1,1,1,1,1,1,1,1,1,1,1,1,1,2,14,
1,1,1,1,1,1,1,1,1,1,1,1,1,1,10,11,
1,1,1,1,1,1,1,1,1,1,1,1,1,1,10,11,
1,1,1,1,1,1,1,1,1,1,1,1,1,2,14,11,
1,1,1,1,1,1,1,1,1,1,1,1,1,10,11,11,
1,1,1,1,1,1,1,1,1,1,1,1,2,14,11,11,
1,1,1,1,1,1,1,1,1,1,2,4,10,11,11,11,
3,3,4,1,1,1,1,1,2,3,14,13,14,11,11,11,
11,11,13,3,3,3,3,3,14,11,11,11,11,11,11,11,
11,11,11,11,11,11,11,11,11,11,11,11,11,11,11,11,
11,11,11,11,11,11,11,11,11,11,11,11,11,11,11,11
</chunk>
   <chunk x="16" y="80" width="16" height="16">
11,11,11,11,11,11,11,11,11,11,11,11,11,11,11,11,
11,11,11,11,11,11,11,11,11,11,11,11,11,11,11,11,
11,11,11,11,11,11,11,11,11,11,11,11,11,11,11,11,
11,11,11,11,11,11,11,11,11,11,11,11,11,11,11,11,
11,11,11,11,11,11,11,11,11,11,11,11,11,11,11,11,
11,11,11,11,11,11,11,11,11,11,11,11,11,11,11,11,
11,11,11,11,11,11,11,11,11,11,11,11,11,11,11,11,
11,11,11,11,11,11,11,11,11,11,11,11,11,11,11,11,
11,11,11,11,11,11,11,11,11,11,11,11,11,11,11,11,
11,11,11,11,11,11,11,11,11,11,11,11,11,11,11,11,
11,11,11,11,11,11,11,11,11,11,11,11,11,11,11,11,
11,11,11,11,11,11,11,11,11,11,11,11,11,11,11,11,
11,11,11,11,11,11,11,11,11,11,11,11,11,11,11,11,
11,11,11,11,11,11,11,11,11,11,11,11,11,11,11,11,
11,11,11,11,11,11,11,11,11,11,11,11,11,11,11,11,
11,11,11,11,11,11,11,11,11,11,11,11,11,11,11,11
</chunk>
  </data>
 </layer>
 <group id="20" name="Zones">
  <objectgroup id="19" name="entryflow2" class="ZFlow">
   <properties>
    <property name="from" type="object" value="89"/>
    <property name="sequence" value="v:0,d:5,off,d:5,v:1,d:5,off,d:10,v:1,d:15,d:15"/>
    <property name="to" type="object" value="90"/>
    <property name="vecs_magnitude" value="2,3"/>
   </properties>
   <object id="89" x="-450" y="56">
    <point/>
   </object>
   <object id="90" x="-410" y="59">
    <point/>
   </object>
   <object id="91" type="ZArea" x="-444" y="16" width="60" height="56"/>
   <object id="96" type="DoodadPlace" gid="25" x="-424" y="56" width="8" height="8">
    <properties>
     <property name="doodad" type="int" propertytype="Doodad" value="0"/>
    </properties>
   </object>
   <object id="97" type="DoodadPlace" gid="25" x="-324" y="41" width="8" height="8">
    <properties>
     <property name="doodad" type="int" propertytype="Doodad" value="0"/>
    </properties>
   </object>
   <object id="98" type="DoodadPlace" gid="25" x="-384" y="44" width="8" height="8">
    <properties>
     <property name="doodad" type="int" propertytype="Doodad" value="0"/>
    </properties>
   </object>
   <object id="99" type="ZArea" x="-376" y="16" width="112" height="48"/>
   <object id="100" type="DoodadPlace" gid="25" x="-281" y="46" width="8" height="8">
    <properties>
     <property name="doodad" type="int" propertytype="Doodad" value="0"/>
    </properties>
   </object>
  </objectgroup>
  <objectgroup id="15" name="entryflow1" class="ZFlow">
   <properties>
    <property name="from" type="object" value="83"/>
    <property name="sequence" value="v:0,d:15,off,d:3"/>
    <property name="to" type="object" value="84"/>
    <property name="vecs_magnitude" value="3"/>
   </properties>
   <object id="83" x="-504" y="8">
    <point/>
   </object>
   <object id="84" x="-464" y="44">
    <point/>
   </object>
   <object id="85" type="ZArea" x="-512" y="0" width="68" height="64"/>
   <object id="92" type="DoodadPlace" gid="25" x="-493" y="15" width="8" height="8">
    <properties>
     <property name="doodad" type="int" propertytype="Doodad" value="1"/>
    </properties>
   </object>
   <object id="93" type="DoodadPlace" gid="25" x="-484" y="37" width="8" height="8">
    <properties>
     <property name="doodad" type="int" propertytype="Doodad" value="1"/>
    </properties>
   </object>
   <object id="94" type="DoodadPlace" gid="25" x="-458" y="48" width="8" height="8">
    <properties>
     <property name="doodad" type="int" propertytype="Doodad" value="1"/>
    </properties>
   </object>
  </objectgroup>
 </group>
 <objectgroup id="7" name="Objects" offsetx="-512" offsety="0">
  <object id="9" type="PlayerStart" x="16" y="16">
   <point/>
  </object>
  <object id="101" type="ItemPlace" x="70" y="85" width="7" height="7">
   <properties>
    <property name="item" propertytype="ItemType" value="Trash1"/>
   </properties>
  </object>
  <object id="102" type="ItemPlace" x="46" y="111" width="7" height="7">
   <properties>
    <property name="item" propertytype="ItemType" value="Trash1"/>
   </properties>
  </object>
  <object id="103" type="ItemPlace" x="35" y="118" width="7" height="7">
   <properties>
    <property name="item" propertytype="ItemType" value="Trash1"/>
   </properties>
  </object>
  <object id="104" type="ItemPlace" x="86" y="84" width="7" height="7">
   <properties>
    <property name="item" propertytype="ItemType" value="Trash1"/>
   </properties>
  </object>
  <object id="105" type="ItemPlace" x="20" y="165" width="7" height="7">
   <properties>
    <property name="item" propertytype="ItemType" value="Trash1"/>
   </properties>
  </object>
  <object id="106" type="ItemPlace" x="11" y="156" width="7" height="7">
   <properties>
    <property name="item" propertytype="ItemType" value="Trash1"/>
   </properties>
  </object>
  <object id="107" type="ItemPlace" x="96" y="174" width="7" height="7">
   <properties>
    <property name="item" propertytype="ItemType" value="Trash1"/>
   </properties>
  </object>
  <object id="108" type="ItemPlace" x="95" y="140" width="7" height="7">
   <properties>
    <property name="item" propertytype="ItemType" value="Trash1"/>
   </properties>
  </object>
  <object id="109" type="ItemPlace" x="111" y="142" width="7" height="7">
   <properties>
    <property name="item" propertytype="ItemType" value="Trash1"/>
   </properties>
  </object>
  <object id="110" type="ItemPlace" x="129" y="131" width="7" height="7">
   <properties>
    <property name="item" propertytype="ItemType" value="Trash1"/>
   </properties>
  </object>
  <object id="111" type="ItemPlace" x="143" y="132" width="7" height="7">
   <properties>
    <property name="item" propertytype="ItemType" value="Trash1"/>
   </properties>
  </object>
  <object id="112" type="ItemPlace" x="158" y="133" width="7" height="7">
   <properties>
    <property name="item" propertytype="ItemType" value="Trash1"/>
   </properties>
  </object>
  <object id="113" type="ItemPlace" x="162" y="119" width="7" height="7">
   <properties>
    <property name="item" propertytype="ItemType" value="Trash1"/>
   </properties>
  </object>
  <object id="114" type="ItemPlace" x="207" y="141" width="7" height="7">
   <properties>
    <property name="item" propertytype="ItemType" value="Trash1"/>
   </properties>
  </object>
  <object id="115" type="ItemPlace" x="223" y="144" width="7" height="7">
   <properties>
    <property name="item" propertytype="ItemType" value="Trash1"/>
   </properties>
  </object>
  <object id="116" type="ItemPlace" x="238" y="133" width="7" height="7">
   <properties>
    <property name="item" propertytype="ItemType" value="Trash1"/>
   </properties>
  </object>
  <object id="117" type="ItemPlace" x="118" y="127" width="7" height="7">
   <properties>
    <property name="item" propertytype="ItemType" value="Trash1"/>
   </properties>
  </object>
  <object id="118" name="bud_afish" type="Marker" x="208" y="100" width="8" height="8">
   <properties>
    <property name="id" type="int" value="0"/>
   </properties>
  </object>
  <object id="120" name="bud_squidge" type="Marker" x="240" y="237" width="8" height="8">
   <properties>
    <property name="id" type="int" value="1"/>
   </properties>
  </object>
 </objectgroup>
</map>
